X:74
T:Morris simple chords 15
M:3/4
L:1/8
K:G
D[G2G,2B,2D2]A B2 | c[dG,B,D] ge d2 | c[BG,B,D] dB GF | G[cA,CE] Bc AB | c[dD,F,A,] ^cd ef |
g[f/D,/F,/A,/]g/ af d2 | g[fE,G,B,] ed AB | ^c2<[d2D,2F,2A,2=C2] d2 | D[G2G,2B,2D2]A B2 |
c[dG,B,D] ge d2 | c[BG,B,D] dB GF | G[cA,CE] Bc AB | c[dD,F,A,] ^cd ef |
g[f/D,/F,/A,/]g/ af d2 | g[fE,G,B,] ed AB | ^c2<[d2D,2F,2A,2=C2] d2 | e/f/g/[aD,F,A,]fdaf |
d[cC,E,G,]BcB2 |c[dG,B,D]gddg |d[cC,E,G,]BcBc |d[e2C,2E,2G,2]fgf |
e[d2G,2B,2D2]cBc |d[eC,E,G,]dcBc |A[B2E,2G,2B,2]GE2 |D[GG,B,D]AGGB |
d[e2C,2E,2G,2]fgf |e[dG,B,D]BGA2 |B[E2E,2G,2B,2]FG2 |A[B2G,2B,2D2]gB2 |
A[G3G,3B,3D3]G2 |e/f/g/ [aD,F,A,]f da | fd [cC,E,G,]B cB2 |c [dG,B,D]g dd |
gd [cC,E,G,]B cB | cd [e2C,2E,2G,2] fg | fe [d2G,2B,2D2] cB | cd [eC,E,G,]d cB |
cA [B2E,2G,2B,2] GE2 |D [GG,B,D]A GG | Bd [e2C,2E,2G,2] fg | fe [dG,B,D]B GA2 |
B [E2E,2G,2B,2] FG2 |A [B2G,2B,2D2] gB2 |A2< [G2G,2B,2D2]G2 |

